X:1
T:Draper, 12.11.12.11
T:Draper, 12.11.12.11
T:Üttingen Manuscript, 1754
T:Public Domain Courtesy of the Cyber Hymnal™
C:Üttingen Manuscript, 1754
Z:Public Domain
Z:Courtesy of the Cyber Hymnal™
%%score ( 1 2 ) ( 3 4 )
L:1/8
Q:1/4=108
M:3/4
K:G
V:1 treble 
V:2 treble 
V:3 bass 
V:4 bass 
V:1
 DD | G2 G2 [DA]2 | [DB]2 [GB]2 [Gd]2 | [Gc]3 [GB] [FA]2 | [GB]2 [GB]2 [GB][GB] | A2 [DG]2 [DA]2 | %6
 [DB]2 [G^c]2 [Fd]2 | d3 z e ^c2 | [Dd]4 DD | [DG]2 GA GF | [DE]2 [CE]2 [EG]2 | [Ec]2 [Fc]2 [GB]2 | %12
 [GA]2 [FA]2 [GB][GB] | E2 E2 A2 | F2 D2 G2 | G3 z A F2 | [B,G]4 |] %17
V:2
 x2 | DC B,E x2 | x6 | x6 | x6 | A2 x4 | x6 | F2 (G2 F)E x | x6 | x2 B,2 D2 | x6 | x6 | x6 | %13
 E2 E2 FE | DC B,A, B,C | D2 (E2 D)C x | x4 |] %17
V:3
 D,D, | B,A, [E,G,]2 DC | B,C [G,D]2 [B,D]2 | [A,E]3 [A,D] [D,C]2 | [G,B,]2 [G,D]2 [E,^C][E,C] | %5
 [F,D]2 [E,B,]2 [F,A,]2 | G,2 [E,G,]2 [D,A,]2 | [B,,B,]2 [G,,B,]2 A,G, x | [D,F,]4 [D,F,][C,F,] | %9
 [B,,G,]2 [G,,G,]2 [B,,G,]2 | [C,G,]2 G,2 G,2 | [A,,A,]2 [A,C]2 [G,D]2 | [D,D]2 [D,D]2 [G,D][G,D] | %13
 DC B,A, [A,,C]2 | [B,,B,]2 [B,,F,]2 G,A, | [D,B,]2 [C,C]2 B,A, x | [G,,G,]4 |] %17
V:4
 x2 | G,,2 x F,2 x | G,2 x4 | x6 | x6 | x6 | G,F, x4 | x4 A,,2 x | x6 | x6 | x2 C,D, C,B,, | x6 | %12
 x6 | C,2 C,2 x2 | x4 E,2 | x4 D,2 x | x4 |] %17

